img/logo.svg

<svg fill="none" height="58" viewBox="0 0 91 58" width="91" xmlns="http://www.w3.org/2000/svg" xmlns:xlink="http://www.w3.org/1999/xlink"><clipPath id="a"><path d="m0 0h56.2821v20.2616h-56.2821z" transform="matrix(0 1 -1 0 20.7627 .951172)"/></clipPath><g clip-path="url(#a)"><path d="m1.53857 29.814v9.8584c0 2.1779 1.7655 3.9434 3.94335 3.9434h4.68278c2.1778 0 3.9433-1.7655 3.9433-3.9434v-29.3286" stroke="#fff" stroke-width="1.84845"/><g fill="#fff"><path clip-rule="evenodd" d="m15.1904 11.8708c.9097-.4126.8605-2.4814-.1099-4.62085-.9703-2.13944-2.4944-3.53935-3.404-3.12677-.9097.41257-.8605 2.4814.1099 4.62084.9704 2.13948 2.4944 3.53938 3.404 3.12678zm-.7642-1.684c.2329-.1057-.0228-1.1714-.5712-2.38043-.5484-1.20902-1.1817-2.1035-1.4146-1.99787s.0229 1.17137.5712 2.38039c.5484 1.20902 1.1817 2.10351 1.4146 1.99791z" fill-rule="evenodd"/><path clip-rule="evenodd" d="m15.1904 11.8708c.9097-.4126.8605-2.4814-.1099-4.62085-.9703-2.13944-2.4944-3.53935-3.404-3.12677-.9097.41257-.8605 2.4814.1099 4.62084.9704 2.13948 2.4944 3.53938 3.404 3.12678zm-.7642-1.684c.2329-.1057-.0228-1.1714-.5712-2.38043-.5484-1.20902-1.1817-2.1035-1.4146-1.99787s.0229 1.17137.5712 2.38039c.5484 1.20902 1.1817 2.10351 1.4146 1.99791z" fill-rule="evenodd"/><path clip-rule="evenodd" d="m15.1904 11.8708c.9097-.4126.8605-2.4814-.1099-4.62085-.9703-2.13944-2.4944-3.53935-3.404-3.12677-.9097.41257-.8605 2.4814.1099 4.62084.9704 2.13948 2.4944 3.53938 3.404 3.12678zm-.7642-1.684c.2329-.1057-.0228-1.1714-.5712-2.38043-.5484-1.20902-1.1817-2.1035-1.4146-1.99787s.0229 1.17137.5712 2.38039c.5484 1.20902 1.1817 2.10351 1.4146 1.99791z" fill-rule="evenodd"/><path d="m20.7203 20.0388c-.4302-.6847-4.0612-6.4678-5.8731-9.449v24.3455l5.7705 18.5663c.0251.081.1445.0628.1445-.0219v-10.593c0-.028-.0042-.0559-.0125-.0826l-4.2448-13.6654c-.0089-.0286.0315-.0453.0454-.0187l4.0725 7.7756c.0358.0684.1394.043.1394-.0343v-6.6886c0-.0377-.0077-.075-.0225-.1096l-3.9589-9.2451c-.0117-.0272.0258-.0481.0428-.0238l3.8041 5.4243c.0415.0592.1345.0298.1345-.0424v-5.9903c0-.0524-.0141-.1026-.0419-.147z"/><path clip-rule="evenodd" d="m8.19313 37.6897c0 .0655.07879.0986.12561.0529l5.29646-5.1755v-19.2663l-5.42207 5.539v8.5079c0 .0655.07879.0986.12561.0529l4.83076-4.7204c.0312-.0305.0839-.0084.0842.0353.0001.01.0001.0199.0002.0298.0036.4996.0063 1.2293-.4075 1.6336l-4.63327 4.5274v1.6896c0 .0659.07968.0989.12624.0522l4.82963-4.8347c.0311-.0311.0844-.0091.0847.0349.0001.0093.0001.0186.0002.0278.0036.4995.0063 1.1088-.4075 1.5132l-4.63327 4.5274v1.4517c0 .0655.07879.0987.12561.0529l4.91446-4.8022c0 .0503.0004.0992.0007.147.0036.4995.0063 1.1088-.4075 1.5131l-4.63327 4.5274z" fill-rule="evenodd"/><path d="m.614258 23.2227v6.7694h1.693462c1.20942 2.1202 2.48801 2.4707 3.12394 2.5287.1217.0111.19153-.1282.11942-.2268-2.03129-2.7793-3.86615-6.983-4.689624-9.1178-.049729-.1289-.247198-.0917-.247198.0465z"/></g></g><g fill="#fff"><path d="m69.8823 15.1025h6.5241c1.5732 0 2.9014.2477 3.9847.7431 1.0887.4899 1.9025 1.1703 2.4414 2.0413.5444.871.8166 1.8726.8166 3.0049 0 1.105-.2831 2.1039-.8492 2.9966-.5607.8928-1.4208 1.6032-2.5803 2.1312-1.154.528-2.5802.792-4.2786.792h-6.0587zm5.9852 8.7288c.7077 0 1.3092-.1198 1.8045-.3593.4954-.2395.8683-.5797 1.1187-1.0207.2504-.4463.3756-.9716.3756-1.5759 0-.8546-.2558-1.5323-.7675-2.0331-.5063-.5063-1.2711-.7594-2.2945-.7594h-2.0413v5.7484z"/><path d="m68.534 23.3985v3.4131h-10.7537v-11.7091h4.1806v8.296z"/><path d="m51.3965 15.0859h4.1806v11.7255h-4.1806z"/><path d="m50.1301 15.1016-2.9395 11.709h-5.3565l-2.0658-7.2099-1.9597 7.2099h-4.8338l-2.9641-11.709h4.2134l1.5677 6.8425 1.8454-6.8425h4.6705l2.0087 7.2099 1.6331-7.2099z"/><path d="m87.9993 40.55v2.9804h-10.9007v-11.7091h10.8518v2.9803h-6.6711v1.4371h6.3363v2.7436h-6.3363v1.5677z"/><path d="m74.8935 31.8213v11.7091h-5.332l-4.1153-7.3897v7.3897h-3.7152v-11.7091h5.5034l3.9602 7.259v-7.259z"/><path d="m55.3452 31.8047h4.1807v11.7254h-4.1807z"/><path d="m53.9989 40.1173v3.4131h-10.7538v-11.7091h4.1807v8.296z"/></g></svg>

<svg width="91" height="58" viewBox="0 0 91 58" fill="none" xmlns="http://www.w3.org/2000/svg">
<g clip-path="url(#clip0_1082_316)">
<path d="M1.53857 29.814V39.6724C1.53857 41.8503 3.30407 43.6158 5.48192 43.6158H10.1647C12.3425 43.6158 14.108 41.8503 14.108 39.6724V10.3438" stroke="white" stroke-width="1.84845"/>
<path fill-rule="evenodd" clip-rule="evenodd" d="M15.1904 11.8708C16.1001 11.4582 16.0509 9.3894 15.0805 7.24995C14.1102 5.11051 12.5861 3.7106 11.6765 4.12318C10.7668 4.53575 10.816 6.60458 11.7864 8.74402C12.7568 10.8835 14.2808 12.2834 15.1904 11.8708ZM14.4262 10.1868C14.6591 10.0811 14.4034 9.0154 13.855 7.80637C13.3066 6.59735 12.6733 5.70287 12.4404 5.8085C12.2075 5.91413 12.4633 6.97987 13.0116 8.18889C13.56 9.39791 14.1933 10.2924 14.4262 10.1868Z" fill="white"/>
<path fill-rule="evenodd" clip-rule="evenodd" d="M15.1904 11.8708C16.1001 11.4582 16.0509 9.3894 15.0805 7.24995C14.1102 5.11051 12.5861 3.7106 11.6765 4.12318C10.7668 4.53575 10.816 6.60458 11.7864 8.74402C12.7568 10.8835 14.2808 12.2834 15.1904 11.8708ZM14.4262 10.1868C14.6591 10.0811 14.4034 9.0154 13.855 7.80637C13.3066 6.59735 12.6733 5.70287 12.4404 5.8085C12.2075 5.91413 12.4633 6.97987 13.0116 8.18889C13.56 9.39791 14.1933 10.2924 14.4262 10.1868Z" fill="white"/>
<path fill-rule="evenodd" clip-rule="evenodd" d="M15.1904 11.8708C16.1001 11.4582 16.0509 9.3894 15.0805 7.24995C14.1102 5.11051 12.5861 3.7106 11.6765 4.12318C10.7668 4.53575 10.816 6.60458 11.7864 8.74402C12.7568 10.8835 14.2808 12.2834 15.1904 11.8708ZM14.4262 10.1868C14.6591 10.0811 14.4034 9.0154 13.855 7.80637C13.3066 6.59735 12.6733 5.70287 12.4404 5.8085C12.2075 5.91413 12.4633 6.97987 13.0116 8.18889C13.56 9.39791 14.1933 10.2924 14.4262 10.1868Z" fill="white"/>
<path d="M20.7203 20.0388C20.2901 19.3541 16.6591 13.571 14.8472 10.5898V34.9353L20.6177 53.5016C20.6428 53.5826 20.7622 53.5644 20.7622 53.4797V42.8867C20.7622 42.8587 20.758 42.8308 20.7497 42.8041L16.5049 29.1387C16.496 29.1101 16.5364 29.0934 16.5503 29.12L20.6228 36.8956C20.6586 36.964 20.7622 36.9386 20.7622 36.8613V30.1727C20.7622 30.135 20.7545 30.0977 20.7397 30.0631L16.7808 20.818C16.7691 20.7908 16.8066 20.7699 16.8236 20.7942L20.6277 26.2185C20.6692 26.2777 20.7622 26.2483 20.7622 26.1761V20.1858C20.7622 20.1334 20.7481 20.0832 20.7203 20.0388Z" fill="white"/>
<path fill-rule="evenodd" clip-rule="evenodd" d="M8.19313 37.6897C8.19313 37.7552 8.27192 37.7883 8.31874 37.7426L13.6152 32.5671L13.6152 13.3008L8.19313 18.8398L8.19313 27.3477C8.19313 27.4132 8.27192 27.4463 8.31874 27.4006L13.1495 22.6802C13.1807 22.6497 13.2334 22.6718 13.2337 22.7155C13.2338 22.7255 13.2338 22.7354 13.2339 22.7453C13.2375 23.2449 13.2402 23.9746 12.8264 24.3789L8.19313 28.9063L8.19313 30.5959C8.19313 30.6618 8.27281 30.6948 8.31937 30.6481L13.149 25.8134C13.1801 25.7823 13.2334 25.8043 13.2337 25.8483C13.2338 25.8576 13.2338 25.8669 13.2339 25.8761C13.2375 26.3756 13.2402 26.9849 12.8264 27.3893L8.19313 31.9167L8.19313 33.3684C8.19313 33.4339 8.27192 33.4671 8.31874 33.4213L13.2332 28.6191C13.2332 28.6694 13.2336 28.7183 13.2339 28.7661C13.2375 29.2656 13.2402 29.8749 12.8264 30.2792L8.19313 34.8066L8.19313 37.6897Z" fill="white"/>
<path d="M0.614258 23.2227V29.9921H2.30772C3.51714 32.1123 4.79573 32.4628 5.43166 32.5208C5.55336 32.5319 5.62319 32.3926 5.55108 32.294C3.51979 29.5147 1.68493 25.311 0.861456 23.1762C0.811727 23.0473 0.614258 23.0845 0.614258 23.2227Z" fill="white"/>
</g>
<path d="M69.8823 15.1025H76.4064C77.9796 15.1025 79.3078 15.3502 80.3911 15.8456C81.4798 16.3355 82.2936 17.0159 82.8325 17.8869C83.3769 18.7579 83.6491 19.7595 83.6491 20.8918C83.6491 21.9968 83.366 22.9957 82.7999 23.8884C82.2392 24.7812 81.3791 25.4916 80.2196 26.0196C79.0656 26.5476 77.6394 26.8116 75.941 26.8116H69.8823V15.1025ZM75.8675 23.8313C76.5752 23.8313 77.1767 23.7115 77.672 23.472C78.1674 23.2325 78.5403 22.8923 78.7907 22.4513C79.0411 22.005 79.1663 21.4797 79.1663 20.8754C79.1663 20.0208 78.9105 19.3431 78.3988 18.8423C77.8925 18.336 77.1277 18.0829 76.1043 18.0829H74.063V23.8313H75.8675Z" fill="white"/>
<path d="M68.534 23.3985V26.8116H57.7803V15.1025H61.9609V23.3985H68.534Z" fill="white"/>
<path d="M51.3965 15.0859H55.5771V26.8114H51.3965V15.0859Z" fill="white"/>
<path d="M50.1301 15.1016L47.1906 26.8106H41.8341L39.7683 19.6007L37.8086 26.8106H32.9748L30.0107 15.1016H34.2241L35.7918 21.9441L37.6372 15.1016H42.3077L44.3164 22.3115L45.9495 15.1016H50.1301Z" fill="white"/>
<path d="M87.9993 40.55V43.5304H77.0986V31.8213H87.9504V34.8016H81.2793V36.2387H87.6156V38.9823H81.2793V40.55H87.9993Z" fill="white"/>
<path d="M74.8935 31.8213V43.5304H69.5615L65.4462 36.1407V43.5304H61.731V31.8213H67.2344L71.1946 39.0803V31.8213H74.8935Z" fill="white"/>
<path d="M55.3452 31.8047H59.5259V43.5301H55.3452V31.8047Z" fill="white"/>
<path d="M53.9989 40.1173V43.5304H43.2451V31.8213H47.4258V40.1173H53.9989Z" fill="white"/>
<defs>
<clipPath id="clip0_1082_316">
<rect width="56.2821" height="20.2616" fill="white" transform="translate(20.7627 0.951172) rotate(90)"/>
</clipPath>
</defs>
</svg>
